svgs/sharp-light/circle-down.svg

<svg xmlns="http://www.w3.org/2000/svg" viewBox="0 0 512 512"><!--! Font Awesome Pro 6.6.0 by @fontawesome - https://fontawesome.com License - https://fontawesome.com/license (Commercial License) Copyright 2024 Fonticons, Inc. --><path d="M256 32a224 224 0 1 0 0 448 224 224 0 1 0 0-448zm0 480A256 256 0 1 1 256 0a256 256 0 1 1 0 512zM224 256l0 32-32 0-18.7 0L256 370.7 338.7 288 320 288l-32 0 0-32 0-96-64 0 0 96zm32 160l-22.6-22.6L128 288l0-32 32 0 32 0 0-32 0-64 0-32 32 0 64 0 32 0 0 32 0 64 0 32 32 0 32 0 0 32L278.6 393.4 256 416z"/></svg>

<svg xmlns="http://www.w3.org/2000/svg" viewBox="0 0 512 512"><!--! Font Awesome Pro 6.4.0 by @fontawesome - https://fontawesome.com License - https://fontawesome.com/license (Commercial License) Copyright 2023 Fonticons, Inc. --><path d="M256 32a224 224 0 1 0 0 448 224 224 0 1 0 0-448zm0 480A256 256 0 1 1 256 0a256 256 0 1 1 0 512zM224 256v32H192 173.3L256 370.7 338.7 288H320 288V256 160H224v96zm32 160l-22.6-22.6L128 288V256h32 32V224 160 128h32 64 32v32 64 32h32 32v32L278.6 393.4 256 416z"/></svg>
